X: 6559
T: Catherine Marie
R: reel
M: 4/4
K: Gmajor
|:G2GA GEDE|G2Bd edBd|g2ag efge|
dBGB AGEF|G2GA GEDE|G2Bd edBd|
g2ag efge|1 dBAB GDEF:|2 dBAB GABd||
|:g2ga g2ed|eaab a2ga|baab aged|
efga gede|g2ga g2ed|eaab a2ga|
baag ageg|1 dBAB GABd:|2 dBAB GDEF||

